X: 43605
T: Youngest Ancient Mariner, The
R: waltz
M: 3/4
K: Amajor
A6|A2B2c2|f6|a3fe2|c6|e3fA2|cB3-B2|c3BA2|
A6|A3Bc2|f6|a3fe2|c6|e3Be2|A6-|A6:|
f6|a3fe2|c6|c3Bc2|f6|e3fA2|cB3-B2|
c3BA2|f6|e3fe2|c6|c3Bc2|A6|e3Be2|A6-|A6|
f6|a3fe2|c6|c3Bc2|f6|e3fA2|cB3-B2|
c3BA2|A6|A3Bc2|f6|a3fe2|c6|e3Be2|A6-|A6||

